X:35
T:Durham Old Women
Z:Jack Campin, http://www.campin.me.uk/
S:Northumbrian Minstrelsy
N:the first half does not make any sense to me at all;
N:this is possibly one of the book's editing screwups
M:9/8
L:1/8
K:G
c3  GBG          dGA|d3  GBG          AcA |
c3  GBG          dGA|c3  GBG          AcA:|
g2d e/f/g/f/e/d/ gdB|g2d e/f/g/f/e/d/ fcA |
g2d e/f/g/f/e/d/ dBc|ecd f2c          AcA:|

